src/main/webapp/data/dji.svg

<svg height="400" viewBox="0 0 15 10" width="600" xmlns="http://www.w3.org/2000/svg"><path d="m0 0h15v10h-15z" fill="#6ab2e7"/><path d="m0 5h15v5h-15z" fill="#12ad2b"/><path d="m0 0v5 5l4.330127-2.5 4.330127-2.5-4.330127-2.5z" fill="#fff"/><path d="m3.3143278 3.75.3102707.954915h1.0040571l-.8122992.59017.3102706.954915-.8122992-.59017-.8122992.59017.3102706-.954915-.8122992-.59017h1.004057z" fill="#d7141a"/></svg>

<?xml version="1.0" encoding="UTF-8"?>
<svg xmlns="http://www.w3.org/2000/svg" width="600"  height="400" viewBox="0 0 15 10">
<rect width="15" height="10" id="blue" style="fill:#6ab2e7"/>
<rect width="15" height="5" y="5" id="green"  style="fill:#12ad2b"/>
<path d="M 0,0 0,5 0,10 4.330127,7.5 8.660254,5 4.330127,2.5 0,0 z" id="path6904" style="fill:#fff"/>
<path d="m 3.3143278,3.75 0.3102707,0.954915 1.0040571,0 L 3.8163564,5.295085 4.126627,6.25 3.3143278,5.65983 2.5020286,6.25 2.8122992,5.295085 2,4.704915 l 1.004057,0 L 3.3143278,3.75 z" id="path6929" style="fill:#d7141a"/></svg>
